images/icon-instagram.svg

<svg width="48" height="48" viewBox="0 0 48 48" fill="none" xmlns="http://www.w3.org/2000/svg">
<g clip-path="url(#clip0_208_148)">
<path d="M24 4.322C30.413 4.322 31.172 4.35 33.694 4.462C36.037 4.566 37.304 4.959 38.147 5.287C39.263 5.719 40.069 6.244 40.903 7.078C41.747 7.922 42.263 8.718 42.693 9.834C43.022 10.678 43.416 11.954 43.519 14.288C43.631 16.818 43.659 17.578 43.659 23.981C43.659 30.394 43.631 31.153 43.519 33.675C43.416 36.019 43.022 37.285 42.694 38.128C42.263 39.244 41.737 40.05 40.904 40.884C40.059 41.728 39.262 42.244 38.147 42.675C37.303 43.003 36.028 43.397 33.694 43.5C31.162 43.612 30.404 43.64 24 43.64C17.587 43.64 16.828 43.612 14.306 43.5C11.963 43.397 10.696 43.003 9.853 42.675C8.738 42.244 7.931 41.719 7.097 40.885C6.253 40.041 5.737 39.244 5.307 38.128C4.978 37.284 4.584 36.009 4.481 33.675C4.369 31.144 4.341 30.385 4.341 23.981C4.341 17.569 4.369 16.809 4.481 14.287C4.584 11.944 4.978 10.678 5.306 9.834C5.737 8.719 6.263 7.913 7.096 7.078C7.941 6.234 8.738 5.718 9.853 5.288C10.697 4.959 11.972 4.566 14.306 4.463C16.828 4.35 17.587 4.322 24 4.322ZM24 0C17.484 0 16.669 0.028 14.11 0.14C11.56 0.253 9.806 0.666 8.288 1.256C6.703 1.875 5.362 2.691 4.031 4.031C2.691 5.363 1.875 6.703 1.256 8.278C0.666 9.806 0.253 11.55 0.141 14.1C0.028 16.669 0 17.484 0 24C0 30.516 0.028 31.331 0.14 33.89C0.253 36.44 0.666 38.194 1.256 39.712C1.875 41.297 2.691 42.637 4.031 43.969C5.22832 45.1891 6.6778 46.1327 8.278 46.734C9.806 47.325 11.55 47.737 14.1 47.85C16.66 47.962 17.475 47.99 23.99 47.99C30.506 47.99 31.322 47.962 33.881 47.85C36.431 47.737 38.184 47.325 39.703 46.734C41.3032 46.1327 42.7527 45.1891 43.95 43.969C45.1704 42.7718 46.1145 41.3223 46.716 39.722C47.306 38.194 47.719 36.45 47.831 33.9C47.944 31.34 47.971 30.525 47.971 24.01C47.971 17.494 47.944 16.678 47.831 14.119C47.719 11.569 47.306 9.816 46.716 8.297C46.125 6.703 45.309 5.362 43.969 4.031C42.7717 2.81093 41.3222 1.86725 39.722 1.266C38.194 0.675 36.45 0.262 33.9 0.15C31.331 0.028 30.516 0 24 0Z" fill="url(#paint0_linear_208_148)"/>
<path d="M24 11.672C17.194 11.672 11.672 17.194 11.672 24C11.672 30.806 17.194 36.328 24 36.328C30.806 36.328 36.328 30.806 36.328 24C36.328 17.194 30.806 11.672 24 11.672ZM24 31.997C21.901 31.9638 19.8991 31.1067 18.4265 29.6106C16.9538 28.1145 16.1285 26.0993 16.1285 24C16.1285 21.9007 16.9538 19.8856 18.4265 18.3895C19.8991 16.8934 21.901 16.0362 24 16.003C26.099 16.0362 28.1009 16.8934 29.5735 18.3895C31.0461 19.8856 31.8715 21.9007 31.8715 24C31.8715 26.0993 31.0461 28.1145 29.5735 29.6106C28.1009 31.1067 26.099 31.9638 24 31.997ZM39.694 11.184C39.6942 11.7535 39.5255 12.3103 39.2092 12.7839C38.8929 13.2575 38.4433 13.6267 37.9172 13.8447C37.3911 14.0627 36.8121 14.1198 36.2536 14.0088C35.695 13.8977 35.1819 13.6235 34.7792 13.2208C34.3765 12.8181 34.1023 12.305 33.9913 11.7465C33.8802 11.1879 33.9373 10.6089 34.1553 10.0828C34.3734 9.55671 34.7425 9.10709 35.2161 8.79081C35.6897 8.47454 36.2465 8.30583 36.816 8.30603C37.5787 8.30788 38.3097 8.61169 38.849 9.15102C39.3883 9.69035 39.6921 10.4213 39.694 11.184Z" fill="url(#paint1_linear_208_148)"/>
</g>
<defs>
<linearGradient id="paint0_linear_208_148" x1="-2.2972" y1="23.9951" x2="47.971" y2="23.9951" gradientUnits="userSpaceOnUse">
<stop offset="0.0260229" stop-color="#13B0F5"/>
<stop offset="1" stop-color="#E70FAA"/>
</linearGradient>
<linearGradient id="paint1_linear_208_148" x1="10.3301" y1="22.3171" x2="39.694" y2="22.3171" gradientUnits="userSpaceOnUse">
<stop offset="0.0260229" stop-color="#13B0F5"/>
<stop offset="1" stop-color="#E70FAA"/>
</linearGradient>
<clipPath id="clip0_208_148">
<rect width="48" height="48" fill="white"/>
</clipPath>
</defs>
</svg>

<svg width="48" height="48" fill="none" xmlns="http://www.w3.org/2000/svg"><path d="M24 4.322c6.413 0 7.172.028 9.694.14 2.343.104 3.61.497 4.453.825 1.116.432 1.922.957 2.756 1.791.844.844 1.36 1.64 1.79 2.756.329.844.723 2.12.826 4.454.112 2.53.14 3.29.14 9.693 0 6.413-.028 7.172-.14 9.694-.103 2.344-.497 3.61-.825 4.453-.431 1.116-.957 1.922-1.79 2.756-.845.844-1.642 1.36-2.757 1.791-.844.328-2.119.722-4.453.825-2.532.112-3.29.14-9.694.14-6.413 0-7.172-.028-9.694-.14-2.343-.103-3.61-.497-4.453-.825-1.115-.431-1.922-.956-2.756-1.79-.844-.844-1.36-1.641-1.79-2.757-.329-.844-.723-2.119-.826-4.453-.112-2.531-.14-3.29-.14-9.694 0-6.412.028-7.172.14-9.694.103-2.343.497-3.609.825-4.453.431-1.115.957-1.921 1.79-2.756.845-.844 1.642-1.36 2.757-1.79.844-.329 2.119-.722 4.453-.825 2.522-.113 3.281-.141 9.694-.141ZM24 0c-6.516 0-7.331.028-9.89.14-2.55.113-4.304.526-5.822 1.116-1.585.619-2.926 1.435-4.257 2.775-1.34 1.332-2.156 2.672-2.775 4.247C.666 9.806.253 11.55.141 14.1.028 16.669 0 17.484 0 24s.028 7.331.14 9.89c.113 2.55.526 4.304 1.116 5.822.619 1.585 1.435 2.925 2.775 4.257a11.732 11.732 0 0 0 4.247 2.765c1.528.591 3.272 1.003 5.822 1.116 2.56.112 3.375.14 9.89.14 6.516 0 7.332-.028 9.891-.14 2.55-.113 4.303-.525 5.822-1.116a11.732 11.732 0 0 0 4.247-2.765 11.732 11.732 0 0 0 2.766-4.247c.59-1.528 1.003-3.272 1.115-5.822.113-2.56.14-3.375.14-9.89 0-6.516-.027-7.332-.14-9.891-.112-2.55-.525-4.303-1.115-5.822-.591-1.594-1.407-2.935-2.747-4.266a11.732 11.732 0 0 0-4.247-2.765C38.194.675 36.45.262 33.9.15 31.331.028 30.516 0 24 0Z" fill="#000100"/><path d="M24 11.672c-6.806 0-12.328 5.522-12.328 12.328 0 6.806 5.522 12.328 12.328 12.328 6.806 0 12.328-5.522 12.328-12.328 0-6.806-5.522-12.328-12.328-12.328Zm0 20.325a7.998 7.998 0 0 1 0-15.994 7.998 7.998 0 0 1 0 15.994ZM39.694 11.184a2.879 2.879 0 1 1-2.878-2.878 2.885 2.885 0 0 1 2.878 2.878Z" fill="#000100"/></svg>
